X:1
T:Lord Ramsey's
R:reel
M:4/4
L:1/8
K:A
|:A,2CE FECE|AECE FECE|A,2CE FECE|FCEC ~B,2B,C|
|A,2CE FECE|AECE FECE|DCB,D CB,A,C|B,A,G,A, B,CDB,:|
|:eA~A2 eAfA|eA~A2 efga|eA~A2 agfe|dB=GB D=GBd|
|eA~A2 eAfA|eA~A2 efge|agfe fedc|1 BAGA Bcdf:|2 BAGF EDCB,|]